svg/color/babl.svg

<?xml version="1.0" encoding="UTF-8" ?>
<!DOCTYPE svg PUBLIC "-//W3C//DTD SVG 1.1//EN" "http://www.w3.org/Graphics/SVG/1.1/DTD/svg11.dtd">
<svg width="250pt" height="249pt" viewBox="0 0 250 249" version="1.1" xmlns="http://www.w3.org/2000/svg">
<g id="#160e6bff">
<path fill="#160e6b" opacity="1.00" d=" M 0.00 0.00 L 250.00 0.00 L 250.00 249.00 L 0.00 249.00 L 0.00 0.00 M 52.99 43.01 C 65.00 50.48 77.19 57.66 89.34 64.90 C 89.23 80.14 89.49 95.39 89.21 110.63 C 101.09 118.31 113.44 125.31 125.59 132.58 C 125.65 118.16 125.61 103.74 125.61 89.32 C 137.53 96.67 149.66 103.69 161.69 110.88 C 161.27 131.59 161.49 152.31 161.45 173.02 C 160.97 191.30 161.58 209.58 161.52 227.86 C 173.50 220.58 185.51 213.37 197.58 206.23 C 197.77 167.22 197.64 128.19 197.64 89.18 C 197.63 89.10 197.60 88.96 197.58 88.88 C 185.48 81.58 173.39 74.25 161.15 67.19 C 149.45 74.56 137.43 81.42 125.68 88.72 C 125.54 73.47 125.65 58.23 125.63 42.99 C 113.41 35.75 101.32 28.28 89.01 21.23 C 77.07 28.61 64.96 35.70 52.99 43.01 M 89.17 142.99 C 89.02 161.24 89.16 179.50 89.10 197.75 C 101.10 205.25 113.32 212.42 125.34 219.89 C 125.65 205.12 125.41 190.34 125.46 175.57 C 125.25 169.49 126.18 163.27 124.56 157.32 C 122.36 147.29 115.49 138.47 106.59 133.45 C 99.51 129.54 89.67 134.92 89.17 142.99 Z" />
</g>
<g id="#ffbe44ff">
<path fill="#ffbe44" opacity="1.00" d=" M 52.99 43.01 C 64.96 35.70 77.07 28.61 89.01 21.23 C 101.32 28.28 113.41 35.75 125.63 42.99 C 113.72 50.60 101.43 57.59 89.34 64.90 C 77.19 57.66 65.00 50.48 52.99 43.01 Z" />
<path fill="#ffbe44" opacity="1.00" d=" M 125.68 88.72 C 137.43 81.42 149.45 74.56 161.15 67.19 C 173.39 74.25 185.48 81.58 197.58 88.88 C 197.60 88.96 197.63 89.10 197.64 89.18 C 185.74 96.55 173.69 103.68 161.69 110.88 C 149.66 103.69 137.53 96.67 125.61 89.32 C 125.61 103.74 125.65 118.16 125.59 132.58 C 113.44 125.31 101.09 118.31 89.21 110.63 C 101.33 103.27 113.63 96.20 125.68 88.72 Z" />
<path fill="#ffbe44" opacity="1.00" d=" M 89.10 197.75 C 101.22 190.35 113.33 182.95 125.46 175.57 C 125.41 190.34 125.65 205.12 125.34 219.89 C 113.32 212.42 101.10 205.25 89.10 197.75 Z" />
</g>
<g id="#937dffff">
<path fill="#937dff" opacity="1.00" d=" M 125.63 42.99 C 125.65 58.23 125.54 73.47 125.68 88.72 C 113.63 96.20 101.33 103.27 89.21 110.63 C 89.49 95.39 89.23 80.14 89.34 64.90 C 101.43 57.59 113.72 50.60 125.63 42.99 Z" />
<path fill="#937dff" opacity="1.00" d=" M 161.69 110.88 C 173.69 103.68 185.74 96.55 197.64 89.18 C 197.64 128.19 197.77 167.22 197.58 206.23 C 185.51 213.37 173.50 220.58 161.52 227.86 C 161.58 209.58 160.97 191.30 161.45 173.02 C 161.49 152.31 161.27 131.59 161.69 110.88 Z" />
<path fill="#937dff" opacity="1.00" d=" M 89.17 142.99 C 89.67 134.92 99.51 129.54 106.59 133.45 C 115.49 138.47 122.36 147.29 124.56 157.32 C 126.18 163.27 125.25 169.49 125.46 175.57 C 113.33 182.95 101.22 190.35 89.10 197.75 C 89.16 179.50 89.02 161.24 89.17 142.99 Z" />
</g>
</svg>

<?xml version="1.0" encoding="utf-8"?>
<!-- Generator: Adobe Illustrator 26.0.3, SVG Export Plug-In . SVG Version: 6.00 Build 0)  -->
<svg version="1.1" id="Layer_1" xmlns="http://www.w3.org/2000/svg" xmlns:xlink="http://www.w3.org/1999/xlink" x="0px" y="0px"
	 viewBox="0 0 250 249" style="enable-background:new 0 0 250 249;" xml:space="preserve">
<style type="text/css">
	.st0{fill:#160E6B;}
	.st1{fill:#FFBE44;}
	.st2{fill:#937DFF;}
</style>
<circle class="st0" cx="125" cy="124.5" r="125"/>
<g id="_x23_ffbe44ff">
	<path class="st1" d="M53,43c12-7.3,24.1-14.4,36-21.8c12.3,7.1,24.4,14.5,36.6,21.8c-11.9,7.6-24.2,14.6-36.3,21.9
		C77.2,57.7,65,50.5,53,43z"/>
	<path class="st1" d="M125.7,88.7c11.7-7.3,23.8-14.2,35.5-21.5c12.2,7.1,24.3,14.4,36.4,21.7c0,0.1,0.1,0.2,0.1,0.3
		c-11.9,7.4-23.9,14.5-35.9,21.7c-12-7.2-24.2-14.2-36.1-21.6c0,14.4,0,28.8,0,43.3c-12.1-7.3-24.5-14.3-36.4-22
		C101.3,103.3,113.6,96.2,125.7,88.7z"/>
	<path class="st1" d="M89.1,197.8c12.1-7.4,24.2-14.8,36.4-22.2c0,14.8,0.2,29.5-0.1,44.3C113.3,212.4,101.1,205.2,89.1,197.8z"/>
</g>
<g id="_x23_937dffff">
	<path class="st2" d="M125.6,43c0,15.2-0.1,30.5,0.1,45.7c-12.1,7.5-24.3,14.5-36.5,21.9c0.3-15.2,0-30.5,0.1-45.7
		C101.4,57.6,113.7,50.6,125.6,43z"/>
	<path class="st2" d="M161.7,110.9c12-7.2,24.1-14.3,35.9-21.7c0,39,0.1,78-0.1,117c-12.1,7.1-24.1,14.4-36.1,21.6
		c0.1-18.3-0.6-36.6-0.1-54.8C161.5,152.3,161.3,131.6,161.7,110.9z"/>
	<path class="st2" d="M89.2,143c0.5-8.1,10.3-13.5,17.4-9.5c8.9,5,15.8,13.8,18,23.9c1.6,5.9,0.7,12.2,0.9,18.2
		c-12.1,7.4-24.2,14.8-36.4,22.2C89.2,179.5,89,161.2,89.2,143z"/>
</g>
</svg>
